X:18
T:Mrs. Johnston of Woodhills Reel
C:Robert Petrie
S:Petrie's Collection of Strathspey Reels and Country Dances &c., 1790
Z:Steve Wyrick , 4/3/04
N:Petrie's First Collection, page 9
L:1/8
V:1 name = "violin"
V:2 name = "bass" clef=bass middle=d transpose=-24
M:C|
R:Reel
K:Bb
[V:1] d|TB2 FD FGBg|f(dTcB) cGGc|TB2 FD FGBg|fdcd B/B/B B:|
[V:2] z| B2 b2 e2d2|B2  d2  e2E2| B2 b2 e2de|f2F2 B2    B:|
[V:1] g|(fg/a/ b).g .f(TdcB)|ecdB Tc>BGg|(fg/a/ b)f gbfd |Tc>Bcd B/B/B Bg|
[V:2] z| d2    e2    b2  d2 |a2b2  e2e'2| b2    d'2 e'2b2| f'2f2 b2    B2|
[V:1] fg/a/ bf gbfd|ecdB Tc>BGc|B(GTFD) FGBg|fdcd B/B/B B|]
[V:2] B2    d2 e2B2|A2B2  e2E2 |B2  b2  e2de|f2F2 B2    B|]
% The above code was written using Phil Taylor's BarFly abc reader/converter/player program.
% Other abc converters (e.g. abc2ps) may require everything after the word "bass" to be
% deleted in the V:2 header line for correct display of notes the bass clef, or require that
% the M: and K: fields be repeated directly under the V:1 header line to display the meter
% and key signature on both staffs.  Some abc MIDI players (e.g. abc2midi) will not play
% multiple-voiced abc code.  -SW
